icons/mobile/24/svg/lock-warning-24.svg

<svg width="24" height="24" viewBox="0 0 24 24" fill="none" xmlns="http://www.w3.org/2000/svg">
<path fill-rule="evenodd" clip-rule="evenodd" d="M16.1803 12.75C16.7704 11.7502 18.231 11.7501 18.82 12.75L22.7907 19.4903C23.3386 20.4203 22.7554 21.6171 21.6754 21.7481C20.1276 21.935 18.7215 22 17.4997 22C15.9899 22 14.5982 21.901 13.3444 21.75C12.2525 21.618 11.656 20.4283 12.2096 19.4883L16.1803 12.75ZM17.4997 19C17.0856 19.0002 16.7497 19.3359 16.7497 19.75C16.7497 20.1641 17.0856 20.4998 17.4997 20.5C17.9139 20.5 18.2497 20.1642 18.2497 19.75C18.2497 19.3358 17.9139 19 17.4997 19ZM17.4997 14.5C17.0856 14.5002 16.7497 14.8359 16.7497 15.25V17C16.7497 17.4141 17.0856 17.7498 17.4997 17.75C17.9139 17.75 18.2497 17.4142 18.2497 17V15.25C18.2497 14.8358 17.9139 14.5 17.4997 14.5Z" fill="black"/>
<path fill-rule="evenodd" clip-rule="evenodd" d="M9 1C11.7612 1 14 3.23875 14 6V9.38379C14.0907 9.39777 14.1819 9.41103 14.2725 9.42578C15.1493 9.56987 15.8832 10.0613 16.3711 10.7402C15.8141 10.9632 15.3352 11.3405 14.9922 11.8555C14.7662 11.4976 14.4181 11.2244 13.9893 11.1543C12.3453 10.8863 10.666 10.75 9 10.75C7.349 10.75 5.68469 10.8845 4.05469 11.1475C3.29894 11.2696 2.75011 11.912 2.75 12.6758V17.3271C2.75007 18.076 3.29193 18.7286 4.01074 18.8457C6.21965 19.2067 8.47977 19.3037 10.7217 19.1797L10.7227 19.1787C10.5047 19.7436 10.451 20.3507 10.5889 20.9355C10.0589 20.9615 9.52995 21 9.00098 21C7.24198 21 5.46749 20.8562 3.72949 20.5732C2.14776 20.3141 1.00104 18.9499 1.00098 17.3271V12.6758C1.00108 11.0489 2.16844 9.67893 3.77637 9.41895C3.8508 9.40691 3.92546 9.39628 4 9.38477V6C4 3.23875 6.23875 1 9 1ZM9 2.75C7.20525 2.75 5.75 4.20525 5.75 6V9.16211C7.90664 8.94815 10.0914 8.9483 12.25 9.16211V6C12.25 4.20525 10.7948 2.75 9 2.75Z" fill="black"/>
</svg>

<!-- This Source Code Form is subject to the terms of the Mozilla Public
   - License, v. 2.0. If a copy of the MPL was not distributed with this
   - file, You can obtain one at http://mozilla.org/MPL/2.0/. -->
<svg xmlns="http://www.w3.org/2000/svg" width="24" height="24" fill="none" viewBox="0 0 24 24">
    <path fill="#000" fill-rule="evenodd" d="M16.18 12.75c.59-1 2.051-1 2.64 0l3.97 6.74a1.506 1.506 0 0 1-1.115 2.258 35 35 0 0 1-8.33.002c-1.093-.132-1.689-1.322-1.135-2.262zM17.5 19a.75.75 0 1 0 0 1.5.75.75 0 0 0 0-1.5m0-4.5a.75.75 0 0 0-.75.75V17a.75.75 0 0 0 1.5 0v-1.75a.75.75 0 0 0-.75-.75M9 1a5 5 0 0 1 5 5v3.384l.273.042c.876.144 1.61.635 2.098 1.314-.557.223-1.036.6-1.379 1.115-.226-.357-.574-.63-1.003-.7A31 31 0 0 0 9 10.75c-1.651 0-3.315.134-4.945.398a1.544 1.544 0 0 0-1.305 1.528v4.651c0 .749.542 1.402 1.26 1.519 2.21.36 4.47.458 6.712.334v-.001a2.97 2.97 0 0 0-.133 1.757c-.53.026-1.06.064-1.588.064a33 33 0 0 1-5.272-.427c-1.581-.259-2.728-1.623-2.728-3.246v-4.651a3.29 3.29 0 0 1 2.775-3.257L4 9.385V6a5 5 0 0 1 5-5m0 1.75A3.25 3.25 0 0 0 5.75 6v3.162a33 33 0 0 1 6.5 0V6A3.25 3.25 0 0 0 9 2.75" clip-rule="evenodd" />
</svg>
